X:1
T:Fuit homo missus
T:Andrea Gabrieli
T:Source : Liber primus Ecclesiasticarum Cantionum---Venetia---Ang.Gardano---1576. Editor : André Vierendeels (08/09/17).
T:Fuit homo missus
T:©
T:©
T:©
T:©
T:©
C:Andrea Gabrieli
Z:©
%%score [ 1 2 3 4 ]
L:1/8
Q:1/4=120
M:2/2
K:C
V:1 treble nm="Soprano" snm="S"
V:2 treble nm="Alto" snm="A"
V:3 treble-8 nm="Tenor 1" snm="T 1"
V:4 treble-8 nm="Tenor 2" snm="T 2"
V:1
 z8 | z8 | z8 | e6 c2 | f4 e2 c2- | cc e2 d4 | c8 | z4 e4 | e4 A4 | e2 e3 e A2 | dcAB c4 | A4 z4 | %12
w: |||Fu- it|ho- mo mis|_ us a De-|o,|fu-|it ho-|mo mis- sus a|De- * * * *|o,|
 z2 c3 c e2 | d4 c4 | z2 e4 e2 | f2 f2 g4 | c2 c2 f4 |"^b" d2 G2 c3 B | AG A4 G2 | A8- | A8 | z8 | %22
w: mis- sus a|De- o|cu- i|no- men e-|rat Io- an-|nes, Io- an- *||nes,|_||
 z4 z2 e2 | f3 e d4 | c2 e2 f2 e2 | fe d4 c2 | d8 | z8 | z8 | z8 | z2 A2 A2 B2 | c3 c c4 | %32
w: hic|ve- * *|nit in te- sti-|mo _ _ ni-|um,||||ut te- sti-|mo- ni- um|
 B2 B2 A4 | G2 g2 gfed | cA e4 d2 | e4 z4 | z8 | z2 A4 d2 | c2 B4 A2- | A2 G2 A4- | A2 e2 d2 d2 | %41
w: per- hi- be-|ret de lu- * * *|* * * mi-|ne||et pa-|ra- ret do-|* mi- no|_ ple- bem per-|
 B4 A4 | z2 d2 g4- | g2 f4 e2 | d2 ^c2 d2 e2 |"^b" d2 d2 B4 | A2 f2 e2 d2 | dc/B/ c2 d4 | z8 | %49
w: fe- ctam,|et pa-|* ra- ret|do- mi- no ple-|bem per- fe-|ctam, ple- bem per-|fe- * * * ctam,||
 z4 z2 A2- | A2 d2 c2 B2 | A2 c2 d4 | G4 G2 c2 | BA A4 G2 | A8 |] %55
w: et|_ pa- ra- ret|do- mi- no|ple- bem per-|fe- * * *|ctam.|
V:2
 z8 | z8 | z8 | A4 A4 | D4 A2 A2- | AA E2 GFDE | F4 E2 F2- |"^-natural" FF G2 C3 B, | %8
w: |||Fu- it|ho- mo mis-|* sus a De- * * *|* o, mis-|* sus a De- *|
 CD E3 D/C/ D2 | C2 E4 C2 | F4 E2 A2- | AA E2 GFDE | F4 E4 | z2 F4 F2 | G2 G2 A4 | D2 F2 E4 | A8 | %17
w: |* * o,|fu- it mis-|* sus a De- * * *|* o|cu- i|no- men e-|rat Io- an-|nes,|
 _B4 A3 G | FE D2 E3 D | ^C8 | D4 z2 A2 | c3 B A4- | A2 G2 z4 | z2 D2 DEFG | A4 D2 A2 | %25
w: Io- an- *|||nes, hic|ve- * *|* nit,|hic ve- * * *|* nit in|
 F2 G2 E2 E2 | D2 F2 F2 G2 | A3 A A4 | G2 G2 C4 | F2 F2 E2 E2 | F4 z4 | z2 E2 E2 F2 | G3 G D2 F2- | %33
w: te- sti- mo- ni-|um ut te- sti-|mo- ni- um|per- hi- be-|ret de lu- mi-|ne|ut te- sti-|mo- ni- um per-|
 F2 E2 G4 | A2 A2 F2 F2 | G8 | z8 | E4 A4 | G4 F2 FE | DC D4 C2 | F2 A2 F2 A2 | %41
w: * hi- be-|ret de lu- mi-|ne||et pa-|ra- ret do- *|* * * mi-|no ple- bem per-|
"^#""^-natural" AG/F/ G2 E2 F2 | E2 D2 DC/B,/ C2 | D2 A4 _B2 | A3 G F2 G2- | G2 F4 E2 | %46
w: fe- * * * ctam, ple-|dem per- fe- * * *|ctam, et pa-|ra- * * ret|_ do- mi-|
 F2 c2 B2 B2 | A4 A4 | z4 z2 G2 | F2 F2 E4 | D4 z4 | z2 A2 F2 F2 | E4 E2 A2 | F2 F2 E4 | E8 |] %55
w: no ple- bem per|fe- ctam,|ple-|bem per- fe-|ctam,|ple- bem per-|fe- ctam, ple-|bem per fe-|ctam.|
V:3
 e6 c2 | f4 e2 c2- | cc e2 d4 | c2 c2 c2 f2- | fe d2 A4- | A4 z4 | a4 a4 | d4 a2 e2- | e2 c2 f4 | %9
w: Fu- it|ho- mo mis-|* sus a De-|o, fu- it ho-|* * * mo|_|fu- it|ho- mo, fu-|* it ho-|
 e2 c3 c e2 | d4 c4 | z2 c3 c B2 | A3 B cB/A/GA | BA d2 A2 A2 | B2 c2 A4 | z4 z2 c2- | c2 c4 d2 | %17
w: mo mis- sus a|De- o,|mis- sus a|De- * * * * * *|* * * o, a|De- * o|cu-|* i no-|
 d2 e4 A2- | A2 A2 B4 | A4 z2 e2 | f3 e d4 | c2 e2 f2 e2 | fe d4 c2 | d4 z4 | z8 | z8 | z8 | %27
w: men e- rat|_ Io- an-|nes, hic|ve- * *|nit in te- sti-|mo- * * ni-|um,||||
 z2 c2 c2 d2 | e3 e e4 | d2 d2 A4 | a3 g fe d2 | A2 c3 B A2 | e4 f4 | c8 | z8 | z2 e4 g2 | %36
w: ut te- sti-|mo- ni- um|per- hi- be-|ret _ _ _ _|de lu- * *|mi- *|ne,||et pa-|
 f2 e4 d2- | d2 c2 d4 | e4 d2 d2 | B4 A4 | z4 z2 f2 | e2 e2 c4 | B4 z4 | z2 d4 g2 | f2 e2 d2 c2 | %45
w: ra- ret do-|* mi- no|ple- bem per-|fe- ctam,|ple-|bem per- fe-|ctam,|et pa-|ra- ret do- mi-|
 d4 z4 | z2 a2 g2 g2 | e4 d2 f2 | g4 f2 e2- | e2 d4 c2 | d2 f4 d2 |"^b" d2 c2 c2 B2 | c4 z2 e2 | %53
w: no,|ple- bem per-|fe- ctam, et|pa- ra- ret|_ do- mi-|no et pa-|ra- ret do- mi-|no ple-|
 d2 d2 B4 | A8 |] %55
w: bem per- fe-|ctam.|
V:4
 z8 | z4 A4 | A4 D4 | A8 | z8 | z8 | z2 A4 F2 | _B4 A4- | A4 z4 | A4 A4 | D4 A2 F2- | FF A2 G4 | %12
w: |Fu-|it ho-|mo,|||fu- it|ho- mo,|_|fu- it|ho- mo mis-|* sus a De-|
 F2 A3 A E2 | GFDE F4 | E4 z4 | z8 | F6 F2 | G2 G2 A4 | D2 F2 E4 | A8 | z2 D2 DEFG | A4 D2 A2 | %22
w: o, mis- sus a|De- * * * *|o||cu- i|no- men e-|rat Io- an-|nes,|hic ve- * * *|* nit in|
 F2 G2 E2 E2 | D8 | z8 | z2 G2 G2 A2 | _B3 B B4 | A2 A2 F4 | E2 c2 cBAG | FD d4 c2 | d8 | z8 | z8 | %33
w: te- sti- mo- ni-|um,||ut te- sti-|mo- ni- um|per- hi- be-|ret de lu- * * *|* * * mi-|ne,|||
 z8 | z2 A4 d2 | c6 B2 | A2 G2 A2 _B2 | A2 A2 F4 | E4 z2 D2- | D2 d2 f2 e2 | d2 ^c2 d4 | z4 A4 | %42
w: |et pa-|ra- ret|do- mi- no ple-|bem per- fe-|ctam, et|_ pa- ra- ret|do- mi- no|ple-|
 G2 G2 E4 | D4 z4 | z4 z2 c2 | _B2 B2 G4 | F4 z4 |"^#" A4 d4 | c2 B2 A2 G2 | A8 | z4 z2 G2 | %51
w: bet per- fe-|ctam,|ple-|bem per- fe-|ctam,|et pa-|ra- ret do- mi-|no|ple-|
 F2 F2 D4 | C2 c3 B A2 | D2 D2 E4 | A8 |] %55
w: bem per- fe-|ctam, ple- * *|bem per- fe-|ctam.|

